X: 38
M:6/8
L:1/8
K:F
|: d|c>BA c2 c|B>AG B2 B|A>GF E2 D|f3 f2 d|c>BA c2 c|B>AG B2 B|A>GF E>DE|D3 D3:|

